src/assets/img/svg/logos/skills/design.svg

<svg xmlns="http://www.w3.org/2000/svg" viewBox="0 0 48 60"><switch><g><path d="M19.775 24.021l.529-.224-.318-.748.771-.027-1.79-1.646-.063 2.431.554-.534.317.748zM25.051 17.977h13.001v1H25.051v-1zM25.051 21.495h13.001v1H25.051v-1zM25.051 25.014h13.001v1H25.051v-1zM38.552 28.529H24.551v8.037h14.001v-8.037zm-1 7.037H25.551v-6.037h12.001v6.037zM9.582 28.529h13.001v1H9.582v-1zM9.582 32.049h13.001v1H9.582v-1zM9.582 35.566h13.001v1H9.582v-1z"/><path d="M23.083 17.977H9.082v8.037h14.001v-8.037zm-1 7.037H10.082v-6.037h12.001v6.037z"/><path d="M4.374 10.315v29.311H43.26V10.314l-38.886.001zm37.886 28.31H5.374V15.918H42.26v22.707zM15.554 12.583h24.631v1H15.554v-1zm-5.55-.059h1.117v1.116h-1.117v-1.116zm-1.758 0h1.117v1.116H8.246v-1.116zm-1.757 0h1.116v1.116H6.489v-1.116z"/></g></switch><text y="63" font-size="5" font-weight="bold" font-family="'Helvetica Neue', Helvetica, Arial-Unicode, Arial, Sans-serif">Created by Melissa Gutierrez</text><text y="68" font-size="5" font-weight="bold" font-family="'Helvetica Neue', Helvetica, Arial-Unicode, Arial, Sans-serif">from the Noun Project</text></svg>

<svg xmlns:x="http://ns.adobe.com/Extensibility/1.0/" xmlns:i="http://ns.adobe.com/AdobeIllustrator/10.0/" xmlns:graph="http://ns.adobe.com/Graphs/1.0/" xmlns="http://www.w3.org/2000/svg" xmlns:xlink="http://www.w3.org/1999/xlink" version="1.1" x="0px" y="0px" viewBox="0 0 48 60" enable-background="new 0 0 48 48" xml:space="preserve"><switch><foreignObject requiredExtensions="http://ns.adobe.com/AdobeIllustrator/10.0/" x="0" y="0" width="1" height="1"/><g i:extraneous="self"><g><path d="M19.775,24.021l0.529-0.224l-0.318-0.748l0.771-0.027l-1.79-1.646l-0.063,2.431l0.554-0.534L19.775,24.021z"/><path d="M25.051,17.977h13.001v1H25.051V17.977z"/><path d="M25.051,21.495h13.001v1H25.051V21.495z"/><path d="M25.051,25.014h13.001v1H25.051V25.014z"/><path d="M38.552,28.529H24.551v8.037h14.001V28.529z M37.552,35.566H25.551v-6.037h12.001V35.566z"/><path d="M9.582,28.529h13.001v1H9.582V28.529z"/><path d="M9.582,32.049h13.001v1H9.582V32.049z"/><path d="M9.582,35.566h13.001v1H9.582V35.566z"/><path d="M23.083,17.977H9.082v8.037h14.001V17.977z M22.083,25.014H10.082v-6.037h12.001V25.014z"/><path d="M4.374,10.315v29.311H43.26V10.314L4.374,10.315L4.374,10.315z M42.26,38.625H5.374V15.918H42.26V38.625L42.26,38.625z      M15.554,12.583h24.631v1H15.554V12.583z M10.004,12.524h1.117v1.116h-1.117V12.524z M8.246,12.524h1.117v1.116H8.246V12.524z      M6.489,12.524h1.116v1.116H6.489V12.524z"/></g></g></switch><text x="0" y="63" fill="#000000" font-size="5px" font-weight="bold" font-family="'Helvetica Neue', Helvetica, Arial-Unicode, Arial, Sans-serif">Created by Melissa Gutierrez</text><text x="0" y="68" fill="#000000" font-size="5px" font-weight="bold" font-family="'Helvetica Neue', Helvetica, Arial-Unicode, Arial, Sans-serif">from the Noun Project</text></svg>
